svgs/thin/phone-hangup.svg

<svg xmlns="http://www.w3.org/2000/svg" viewBox="0 0 640 512"><!--! Font Awesome Pro 6.0.0-alpha3 by @fontawesome - https://fontawesome.com License - https://fontawesome.com/license (Commercial License) --><path d="M320 144c113.4 0 219.9 43.97 299.8 123.8c4.66 4.654 5.485 11.77 1.994 17.33l-52.73 84.25c-2.538 4.059-7.134 6.582-11.99 6.582c-1.774 0-3.514-.334-5.137-.9785l-105.5-42.12c-5.776-2.283-9.349-8.156-8.677-14.4l7.902-79.1c-40.13-13.69-75.58-22.92-125.7-22.92c-48.97-.0025-84.35 8.821-125.6 22.9L202.3 318.5c.6221 6.164-2.966 12.09-8.686 14.39L88.23 375C86.53 375.7 84.75 376 82.95 376c-4.961 0-9.467-2.473-12.06-6.627L18.16 285.1C14.68 279.6 15.5 272.5 20.16 267.8C100.1 187.1 206.6 144 320 144zM320 128C207.3 128 94.64 170.8 8.85 256.5c-9.968 9.955-11.71 25.24-4.23 37.12l52.71 84.22C62.96 386.9 72.76 392 82.95 392c3.707 0 7.466-.6773 11.09-2.093l105.5-42.13c12.39-4.988 20.01-17.59 18.67-30.85L211.6 250.4c35.09-11.96 71.75-17.94 108.4-17.94c36.7 .002 73.42 5.997 108.5 17.97l-6.64 66.46c-1.424 13.22 6.26 25.95 18.71 30.87l105.4 42.1c3.616 1.436 7.367 2.119 11.07 2.119c10.17 0 19.97-5.156 25.56-14.1l52.73-84.25c7.471-11.9 5.727-27.18-4.251-37.14C545.4 170.8 432.7 128 320 128z"/></svg>

<svg xmlns="http://www.w3.org/2000/svg" viewBox="0 0 640 512"><!-- Font Awesome Pro 6.0.0-alpha2 by @fontawesome - https://fontawesome.com License - https://fontawesome.com/license (Commercial License) --><path d="M320.002 144C433.397 144 539.879 187.975 619.833 267.826C624.493 272.48 625.318 279.6 621.827 285.16L569.094 369.412C566.555 373.471 561.96 375.994 557.101 375.994C555.327 375.994 553.588 375.66 551.965 375.016L446.508 332.896C440.731 330.613 437.159 324.74 437.831 318.492L445.733 239.389C405.604 225.701 370.152 216.471 320.013 216.469C271.044 216.466 235.666 225.29 194.395 239.365L202.275 318.527C202.897 324.691 199.309 330.615 193.59 332.916L88.226 375.002C86.528 375.664 84.754 376 82.951 376C77.99 376 73.484 373.527 70.889 369.373L18.161 285.117C14.682 279.59 15.503 272.482 20.156 267.834C100.116 187.979 206.603 144 320.002 144M320.002 128C207.321 128 94.638 170.836 8.849 256.514C-1.118 266.469 -2.862 281.75 4.619 293.639L57.327 377.861C62.955 386.873 72.758 392 82.951 392C86.658 392 90.417 391.322 94.044 389.906L199.524 347.775C211.916 342.787 219.533 330.187 218.195 316.922L211.574 250.412C246.661 238.449 283.329 232.469 320.013 232.469C356.715 232.471 393.431 238.459 428.551 250.434L421.91 316.902C420.486 330.125 428.17 342.85 440.622 347.775L546.03 389.875C549.646 391.311 553.397 391.994 557.101 391.994C567.266 391.994 577.067 386.838 582.66 377.895L635.389 293.648C642.86 281.75 641.117 266.469 631.138 256.504C545.359 170.836 432.682 128 320.002 128L320.002 128Z"/></svg>
